X:411
T:B411-  Sawney Will Never Be My Love Again
Q:1/4=120
L:1/4
M:C|
K:C
cc/d/ed/c/|B3/2A/d3/2G/|c3/2d/ (e/d/)e/d/|cggG|\
c3/2d/ed/c/|B3/2A/d(c/B/)|A3/2G/ (A/B/)c/A/|Gcc2||\
c/c/g/g/ (e/f/)g|Bdd3/2d/|cge3/2d/|(c/d/)(e/f/)g3/2c/|\
cg/g/ (a/g/)(f/e/)|(d/c/)(B/A/)B(A/G/)|B3/2G/ A/B/c/A/|\
Gcc2|]
